src/img/mark.svg

<svg height="27" viewBox="0 0 29 27" width="29" xmlns="http://www.w3.org/2000/svg"><path d="m868.596473 107.751017c.872898-2.050447 1.309347-3.573637 1.309347-4.569569 0-.981285-.525103-1.508543-1.575309-1.581773h-1.718518c-1.213874-.058585-2.25726-.637104-3.130159-1.7355578-.913815-1.1277462-1.370723-2.3946298-1.370723-3.800651 0-1.7428804.586479-3.1781936 1.759436-4.3059398 1.145679-1.1716843 2.564138-1.7575264 4.255379-1.7575264 2.004938 0 3.648442.8421481 4.930511 2.5264443 1.295709 1.6696501 1.943563 3.82262 1.943563 6.4589096 0 4.9503661-1.800353 9.9959321-5.401058 15.1366961-1.322987 1.918633-2.468666 2.87795-3.437037 2.87795-1.104762 0-1.657143-.62978-1.657143-1.889341 0-.48332.320517-1.157038.961552-2.021155 1.145679-1.537836 2.189065-3.317332 3.130159-5.338487zm-22.596473-11.6875508c0-1.7428804.571932-3.1781936 1.715795-4.3059398 1.143863-1.1716843 2.573693-1.7575264 4.289488-1.7575264 2.00176 0 3.656277.8421481 4.96355 2.5264443 1.280037 1.6696501 1.920056 3.82262 1.920056 6.4589096 0 4.9503661-1.804308 9.9959321-5.412925 15.1366961-1.334507 1.918633-2.478371 2.87795-3.43159 2.87795-1.075776 0-1.613664-.62978-1.613664-1.889341 0-.48332.299583-1.157038.898749-2.021155 1.566004-2.109032 2.85285-4.62083 3.860539-7.535395l.53108-2.372661c0-.981285-.537888-1.508543-1.613665-1.581773h-1.715795c-1.143863-.058585-2.16517-.637104-3.063919-1.7355578-.885133-1.1277462-1.327699-2.3946298-1.327699-3.800651z" fill="#699db7" transform="translate(-846 -90)"/></svg>

<?xml version="1.0" encoding="UTF-8"?>
<svg width="29px" height="27px" viewBox="0 0 29 27" version="1.1" xmlns="http://www.w3.org/2000/svg" xmlns:xlink="http://www.w3.org/1999/xlink">
    <!-- Generator: Sketch 49.3 (51167) - http://www.bohemiancoding.com/sketch -->
    <title>Shape</title>
    <desc>Created with Sketch.</desc>
    <defs></defs>
    <g id="homepage" stroke="none" stroke-width="1" fill="none" fill-rule="evenodd">
        <g id="VISION" transform="translate(-1689.000000, -1155.000000)" fill="#699DB7" fill-rule="nonzero">
            <g id="1" transform="translate(815.000000, 521.000000)">
                <g id="Group-9" transform="translate(28.000000, 544.000000)">
                    <g id="Group-11">
                        <path d="M868.596473,107.751017 C869.469371,105.70057 869.90582,104.17738 869.90582,103.181448 C869.90582,102.200163 869.380717,101.672905 868.330511,101.599675 L866.611993,101.599675 C865.398119,101.54109 864.354733,100.962571 863.481834,99.8641172 C862.568019,98.736371 862.111111,97.4694874 862.111111,96.0634662 C862.111111,94.3205858 862.69759,92.8852726 863.870547,91.7575264 C865.016226,90.5858421 866.434685,90 868.125926,90 C870.130864,90 871.774368,90.8421481 873.056437,92.5264443 C874.352146,94.1960944 875,96.3490643 875,98.9853539 C875,103.93572 873.199647,108.981286 869.598942,114.12205 C868.275955,116.040683 867.130276,117 866.161905,117 C865.057143,117 864.504762,116.37022 864.504762,115.110659 C864.504762,114.627339 864.825279,113.953621 865.466314,113.089504 C866.611993,111.551668 867.655379,109.772172 868.596473,107.751017 Z M846,96.0634662 C846,94.3205858 846.571932,92.8852726 847.715795,91.7575264 C848.859658,90.5858421 850.289488,90 852.005283,90 C854.007043,90 855.66156,90.8421481 856.968833,92.5264443 C858.24887,94.1960944 858.888889,96.3490643 858.888889,98.9853539 C858.888889,103.93572 857.084581,108.981286 853.475964,114.12205 C852.141457,116.040683 850.997593,117 850.044374,117 C848.968598,117 848.43071,116.37022 848.43071,115.110659 C848.43071,114.627339 848.730293,113.953621 849.329459,113.089504 C850.895463,110.980472 852.182309,108.468674 853.189998,105.554109 L853.721078,103.181448 C853.721078,102.200163 853.18319,101.672905 852.107413,101.599675 L850.391618,101.599675 C849.247755,101.54109 848.226448,100.962571 847.327699,99.8641172 C846.442566,98.736371 846,97.4694874 846,96.0634662 Z" id="Shape"></path>
                    </g>
                </g>
            </g>
        </g>
    </g>
</svg>
